X:173
T:Titrwm Tatrwm
M:4/4
L:1/8
Q:120
C:Trad.
R:Slow air
K:G
G2 G2 F2 F2 | E3 F E2 E2 | A2 A2 G2 G2 | G2 F4 F2 | G
2 G2 F3 F/F/ |
E2 EF G2 A2 | B2 BB G2 F2 | E2 E6
 | G6 E2 |
B3 B B2 G2 | A6 F2 | E2 G2 F2 G2 | E
2 E6 ||
